Sources/FrostedUI/Resources/Icons.xcassets/illuminati16.imageset/illuminati-16.svg

<svg width="16" height="16" viewBox="0 0 16 16" fill="none" xmlns="http://www.w3.org/2000/svg" data-fui-icon="true">
  <path
    d="M6.50171 2.03052C7.18235 0.903211 8.81717 0.903213 9.4978 2.03052L15.7263 12.3459C16.4299 13.5121 15.5903 14.9999 14.2283 15.0002H1.77124C0.409495 14.9997 -0.43012 13.512 0.273193 12.3459L6.50171 2.03052ZM1.55737 13.1213C1.45769 13.2876 1.5773 13.4997 1.77124 13.5002H14.2283C14.4225 13.4999 14.5421 13.2878 14.4421 13.1213L12.948 10.6477C12.1008 11.6118 10.457 13.0002 7.99976 13.0002C5.54162 13.0002 3.89743 11.6109 3.05054 10.6467L1.55737 13.1213ZM10.4998 8.00024C10.4996 9.38079 9.38035 10.5002 7.99976 10.5002C6.61928 10.5001 5.49995 9.38071 5.49976 8.00024C5.49976 7.91801 5.50371 7.83631 5.51147 7.7561C4.73481 8.25965 4.19457 8.90155 3.89917 9.31665C4.44856 10.0446 5.82402 11.5001 7.99976 11.5002C10.1749 11.5002 11.5496 10.0449 12.0994 9.31665C11.8038 8.90138 11.2637 8.25968 10.4871 7.7561C10.4948 7.83635 10.4998 7.91796 10.4998 8.00024ZM7.99976 7.00024C7.44758 7.00038 6.99976 7.44804 6.99976 8.00024C6.99995 8.55228 7.44771 9.00011 7.99976 9.00024C8.55192 9.00024 8.99956 8.55236 8.99976 8.00024C8.99976 7.44796 8.55204 7.00024 7.99976 7.00024ZM8.21362 2.80591C8.11639 2.64486 7.88312 2.64487 7.78589 2.80591L5.93726 5.86743C6.54598 5.64228 7.23301 5.50027 7.99976 5.50024L8.30444 5.50708C8.9493 5.53899 9.5346 5.67182 10.0613 5.86646L8.21362 2.80591Z"
    fill="currentColor"
  />
</svg>

<svg xmlns="http://www.w3.org/2000/svg" width="16" height="16" fill="none" data-fui-icon="true" viewBox="0 0 16 16"><path fill="currentColor" d="M6.502 2.03a1.75 1.75 0 0 1 2.996 0l6.228 10.316C16.43 13.512 15.59 15 14.228 15H1.771C.41 15-.43 13.512.273 12.346zM1.557 13.122a.25.25 0 0 0 .214.38h12.457a.25.25 0 0 0 .214-.38l-1.494-2.473C12.101 11.612 10.457 13 8 13s-4.103-1.39-4.95-2.353zm8.943-5.12a2.5 2.5 0 1 1-4.989-.245A6.1 6.1 0 0 0 3.9 9.316c.55.729 1.925 2.184 4.1 2.184 2.176 0 3.55-1.455 4.1-2.183a6.1 6.1 0 0 0-1.612-1.56q.012.12.013.243M8 7a1 1 0 1 0 0 2 1 1 0 0 0 0-2m.214-4.195a.25.25 0 0 0-.428 0L5.937 5.867A5.9 5.9 0 0 1 8 5.5l.304.007c.645.032 1.23.165 1.757.36z"/></svg>
